X:145
T:Sexte estampie real, La
C:Anonyme
O:XIIIe siècle
M:6/8
K:C
F/LG/ | \
FED F/E/F/LG/A | GFE/D/ Fz F | F/E/FG F2C | F3 F2F/LG/ | 
FED F/E/F/LG/A | GFE/D/ Fz F F/E/F/G/F/E/ | D3 Dz F | 
F/E/FD F/E/FG | A2B c2F | G2F/E/ Dz F | 
F/E/FG F2C | F3 F2F | F/E/FD F/E/FG | A2B c2F |
G2F/E/ Dz F F/E/F/G/F/E/ | D3D2z | d3c2B/A/ |
G3 Gz c | c/B/cd cLB A/B/ | A2LB Az F | F/E/FG F2C |
F3 F2z | d3 c2B/A/ | G3 Gz c | c/B/cd cLB A/B/ |
A2LB Az F | F/E/F/G/F/E/ | D3 Dz _B | _B2A B2A/G/ |
F2G F2z | de/Ld/c/B/ A2B | c/B/c/d/c/LB/ Gz F |
F/E/FG F2C | F3 F2_B | _B2A B2A/G/ | F2G F2z |
de/Ld/c/B/ A2B | c/B/c/d/c/LB/ Gz F F/E/F/G/F/E/ | D3 D2 |]





%%header "$P0	 $IR 	$P1"
%%footer $D - Éditions Galouvielle - 2009 - À usage librement privé dans le cadre familial

